svg/blobs-icons/no-decorations/bee.svg

<svg xmlns="http://www.w3.org/2000/svg" xmlns:xlink="http://www.w3.org/1999/xlink" preserveAspectRatio="xMidYMid" width="216" height="220" viewBox="0 0 216 220"><defs><style>.cls-3{fill:#fbb713}.cls-4{fill:#142a3b}.cls-6{fill:#000;opacity:.35}.cls-11{fill:#ededed;opacity:.7}</style></defs><g id="group-84svg"><path d="M122.527 188.331C86.099 224.783 8.975 206.711 8.975 206.711S-9.086 129.538 27.343 93.085c36.428-36.451 87.268-44.681 113.553-18.38 26.284 26.303 18.061 77.174-18.369 113.626z" id="path-1" class="cls-3" fill-rule="evenodd"/><path d="M41.358 80.94s93.308 93.366 93.308 93.366C140.916 165.928 145.844 157.117 149.414 148.244L67.404 66.183C58.537 69.755 49.731 74.685 41.358 80.94z" id="path-2" class="cls-4" fill-rule="evenodd"/><path d="M5.336 146.944s63.367 63.407 63.367 63.407C79.813 209.224 91.146 206.802 101.467 202.316L13.366 114.159c-4.483 10.328-6.903 21.668-8.03 32.785z" id="path-3" class="cls-4" fill-rule="evenodd"/><path d="M140.896 74.705C137.04 70.848 132.607 67.822 127.818 65.43c24.54 26.695 16.039 76.301-19.713 112.077-27.254 27.271-77.277 24.024-100.75 20.659C8.232 203.51 8.975 206.711 8.975 206.711s77.124 18.071 113.553-18.38c36.429-36.452 44.652-87.323 18.368-113.626z" id="path-4" class="cls-6" fill-rule="evenodd"/><path d="M127.566 47.979c13.071-13.08 43.687-3.65 43.687-3.65S180.677 74.964 167.606 88.043C154.535 101.123 134.975 102.757 123.919 91.693 112.862 80.63 114.495 61.058 127.566 47.979z" id="path-5" class="cls-4" fill-rule="evenodd"/><path d="M171.253 44.329S168.983 43.642 165.474 42.896C167.49 52.405 169.94 71.276 160.394 80.828c-11.613 11.621-28.335 14.181-39.678 6.854C121.635 89.106 122.686 90.46 123.919 91.693 134.975 102.757 154.535 101.123 167.606 88.043 180.677 74.964 171.253 44.329 171.253 44.329z" id="path-6" class="cls-6" fill-rule="evenodd"/><path d="M207.463 71.643C206.543 71.643 205.624 71.291 204.923 70.592 203.519 69.188 203.519 66.913 204.921 65.51 209.497 60.933 209.497 53.483 204.921 48.905 200.49 44.469 192.763 44.473 188.333 48.905L172.679 64.568C171.276 65.972 169.001 65.971 167.598 64.571 166.194 63.167 166.194 60.892 167.596 59.489l15.653-15.664C186.822 40.251 191.574 38.282 196.628 38.282 201.679 38.282 206.431 40.251 210.004 43.825c7.374 7.379 7.374 19.385.0 26.765C209.302 71.291 208.381 71.643 207.463 71.643z" id="path-7" class="cls-4" fill-rule="evenodd"/><path d="M153.565 49.039C152.646 49.039 151.727 48.688 151.025 47.988 149.622 46.584 149.622 44.311 151.023 42.907l15.654-15.666C171.253 22.664 171.253 15.214 166.677 10.637 162.246 6.2 154.519 6.204 150.089 10.637 148.685 12.04 146.41 12.038 145.007 10.639 143.603 9.235 143.603 6.96 145.006 5.557 148.578 1.982 153.33.012 158.384.012 163.435.012 168.187 1.982 171.76 5.557c7.374 7.379 7.374 19.385.0 26.764L156.107 47.986C155.406 48.688 154.484 49.039 153.565 49.039z" id="path-8" class="cls-4" fill-rule="evenodd"/><path d="M35.015 140.342c-19.336.0-35.011-15.686-35.011-35.034.0-19.349 15.675-35.035 35.011-35.035 19.337.0 77.333 35.035 77.333 35.035s-57.996 35.034-77.333 35.034z" id="path-9" class="cls-11" fill-rule="evenodd"/><path d="M78.907 184.261c0 19.349 15.675 35.034 35.012 35.034s35.012-15.685 35.012-35.034c0-19.349-35.012-77.382-35.012-77.382s-35.012 58.033-35.012 77.382z" id="path-10" class="cls-11" fill-rule="evenodd"/></g></svg>

<svg xmlns="http://www.w3.org/2000/svg" xmlns:xlink="http://www.w3.org/1999/xlink" preserveAspectRatio="xMidYMid" width="216" height="220" viewBox="0 0 216 220">
  <defs>
    <style>

      .cls-3 {
        fill: #fbb713;
      }

      .cls-4 {
        fill: #142a3b;
      }

      .cls-6 {
        fill: #000000;
        opacity: 0.35;
      }

      .cls-11 {
        fill: #ededed;
        opacity: 0.7;
      }
    </style>
  </defs>
  <g id="group-84svg">
    <path d="M122.527,188.331 C86.099,224.783 8.975,206.711 8.975,206.711 C8.975,206.711 -9.086,129.538 27.343,93.085 C63.771,56.634 114.611,48.404 140.896,74.705 C167.180,101.008 158.957,151.879 122.527,188.331 Z" id="path-1" class="cls-3" fill-rule="evenodd"/>
    <path d="M41.358,80.940 C41.358,80.940 134.666,174.306 134.666,174.306 C140.916,165.928 145.844,157.117 149.414,148.244 C149.414,148.244 67.404,66.183 67.404,66.183 C58.537,69.755 49.731,74.685 41.358,80.940 Z" id="path-2" class="cls-4" fill-rule="evenodd"/>
    <path d="M5.336,146.944 C5.336,146.944 68.703,210.351 68.703,210.351 C79.813,209.224 91.146,206.802 101.467,202.316 C101.467,202.316 13.366,114.159 13.366,114.159 C8.883,124.487 6.463,135.827 5.336,146.944 Z" id="path-3" class="cls-4" fill-rule="evenodd"/>
    <path d="M140.896,74.705 C137.040,70.848 132.607,67.822 127.818,65.430 C152.358,92.125 143.857,141.731 108.105,177.507 C80.851,204.778 30.828,201.531 7.355,198.166 C8.232,203.510 8.975,206.711 8.975,206.711 C8.975,206.711 86.099,224.782 122.528,188.331 C158.957,151.879 167.180,101.008 140.896,74.705 Z" id="path-4" class="cls-6" fill-rule="evenodd"/>
    <path d="M127.566,47.979 C140.637,34.899 171.253,44.329 171.253,44.329 C171.253,44.329 180.677,74.964 167.606,88.043 C154.535,101.123 134.975,102.757 123.919,91.693 C112.862,80.630 114.495,61.058 127.566,47.979 Z" id="path-5" class="cls-4" fill-rule="evenodd"/>
    <path d="M171.253,44.329 C171.253,44.329 168.983,43.642 165.474,42.896 C167.490,52.405 169.940,71.276 160.394,80.828 C148.781,92.449 132.059,95.009 120.716,87.682 C121.635,89.106 122.686,90.460 123.919,91.693 C134.975,102.757 154.535,101.123 167.606,88.043 C180.677,74.964 171.253,44.329 171.253,44.329 Z" id="path-6" class="cls-6" fill-rule="evenodd"/>
    <path d="M207.463,71.643 C206.543,71.643 205.624,71.291 204.923,70.592 C203.519,69.188 203.519,66.913 204.921,65.510 C209.497,60.933 209.497,53.483 204.921,48.905 C200.490,44.469 192.763,44.473 188.333,48.905 C188.333,48.905 172.679,64.568 172.679,64.568 C171.276,65.972 169.001,65.971 167.598,64.571 C166.194,63.167 166.194,60.892 167.596,59.489 C167.596,59.489 183.249,43.825 183.249,43.825 C186.822,40.251 191.574,38.282 196.628,38.282 C201.679,38.282 206.431,40.251 210.004,43.825 C217.378,51.204 217.378,63.210 210.004,70.590 C209.302,71.291 208.381,71.643 207.463,71.643 Z" id="path-7" class="cls-4" fill-rule="evenodd"/>
    <path d="M153.565,49.039 C152.646,49.039 151.727,48.688 151.025,47.988 C149.622,46.584 149.622,44.311 151.023,42.907 C151.023,42.907 166.677,27.241 166.677,27.241 C171.253,22.664 171.253,15.214 166.677,10.637 C162.246,6.200 154.519,6.204 150.089,10.637 C148.685,12.040 146.410,12.038 145.007,10.639 C143.603,9.235 143.603,6.960 145.006,5.557 C148.578,1.982 153.330,0.012 158.384,0.012 C163.435,0.012 168.187,1.982 171.760,5.557 C179.134,12.936 179.134,24.942 171.760,32.321 C171.760,32.321 156.107,47.986 156.107,47.986 C155.406,48.688 154.484,49.039 153.565,49.039 Z" id="path-8" class="cls-4" fill-rule="evenodd"/>
    <path d="M35.015,140.342 C15.679,140.342 0.004,124.656 0.004,105.308 C0.004,85.959 15.679,70.273 35.015,70.273 C54.352,70.273 112.348,105.308 112.348,105.308 C112.348,105.308 54.352,140.342 35.015,140.342 Z" id="path-9" class="cls-11" fill-rule="evenodd"/>
    <path d="M78.907,184.261 C78.907,203.610 94.582,219.295 113.919,219.295 C133.256,219.295 148.931,203.610 148.931,184.261 C148.931,164.912 113.919,106.879 113.919,106.879 C113.919,106.879 78.907,164.912 78.907,184.261 Z" id="path-10" class="cls-11" fill-rule="evenodd"/>
  </g>
</svg>
